; generated by Slic3r 1.1.7 on 2014-08-08 at 17:33:23

; perimeters extrusion width = 0.46mm
; infill extrusion width = 0.56mm
; solid infill extrusion width = 0.56mm
; top infill extrusion width = 0.56mm

G21 ; set units to millimeters
M107
G28 ; home all axes
G1 Z5 F5000; Raise nozzle
M109 S199; Heat to first layer temp
G1 F5000 X210 Y210 Z1; Move print head to center and lower to first layer height
G90 ; use absolute coordinates
G92 E0
M82 ; use absolute distances for extrusion
G1 F1200.000 E-1.00000
G92 E0
G1 Z0.280 F6600.000
G1 X183.367 Y73.796 F6600.000
G1 E1.00000 F1200.000
G1 X185.549 Y68.536 E1.28411 F2550.000
G1 X188.186 Y63.557 E1.56520
G1 X191.291 Y58.842 E1.84687
G1 X194.793 Y54.473 E2.12620
G1 X198.966 Y50.204 E2.42409
G1 X207.989 Y43.072 E2.99790
G1 X215.168 Y38.911 E3.41187
G1 X222.785 Y35.712 E3.82406
G1 X230.847 Y33.438 E4.24197
G1 X249.571 Y30.142 E5.19051
G1 X251.905 Y30.135 E5.30693
G1 X254.106 Y30.910 E5.42336
G1 X255.775 Y32.218 E5.52916 F2550.000
G1 X256.651 Y33.158 E5.59329
G1 X257.929 Y35.111 E5.70972
G1 X258.490 Y37.610 E5.83749
G1 X258.677 Y46.111 E6.26174
G1 X258.795 Y402.763 E24.05571
G1 X258.399 Y405.063 E24.17214
G1 X257.254 Y407.097 E24.28857
G1 X255.494 Y408.629 E24.40499
G1 X252.373 Y409.609 E24.56818
G1 X247.040 Y409.948 E24.83481
G1 X246.499 Y409.961 E24.86184
G1 X241.477 Y409.864 E25.11240
G1 X240.151 Y409.709 E25.17903
G1 X225.494 Y406.516 E25.92744
G1 X216.606 Y404.265 E26.38489
G1 X206.602 Y400.867 E26.91202
G1 X197.284 Y396.823 E27.41878
G1 X189.003 Y392.130 E27.89365
G1 X181.506 Y386.752 E28.35399
G1 X174.803 Y380.673 E28.80547
G1 X168.917 Y373.895 E29.25333
G1 X163.839 Y366.426 E29.70396
G1 X159.563 Y358.280 E30.16297
G1 X156.051 Y349.460 E30.63663
G1 X153.308 Y340.108 E31.12286
G1 X151.813 Y333.435 E31.46405
G1 X151.212 Y327.822 E31.74570
G1 X151.456 Y322.858 E31.99362
G1 X179.876 Y89.843 E43.70529
G1 X181.641 Y79.306 E44.23834
G1 X183.347 Y73.862 E44.52298
G1 X183.764 Y73.958 F6600.000
G1 X185.929 Y68.734 E44.80509 F2550.000
G1 X188.546 Y63.791 E45.08416
G1 X191.627 Y59.108 E45.36382
G1 X195.102 Y54.770 E45.64115
G1 X199.234 Y50.538 E45.93623
G1 X208.207 Y43.441 E46.50699
G1 X215.337 Y39.306 E46.91823
G1 X222.904 Y36.124 E47.32776
G1 X230.921 Y33.860 E47.74343
G1 X249.645 Y30.564 E48.69196
G1 X251.904 Y30.570 E48.80466
G1 X254.022 Y31.356 E48.91737 F2550.000
G1 X255.461 Y32.511 E49.00942
G1 X256.338 Y33.451 E49.07355
G1 X257.564 Y35.348 E49.18626
G1 X258.062 Y37.624 E49.30249
G1 X258.248 Y46.111 E49.72605
G1 X258.367 Y402.763 E67.52002
G1 X257.970 Y404.987 E67.63272
G1 X256.829 Y406.937 E67.74543
G1 X255.084 Y408.371 E67.85813
G1 X252.346 Y409.181 E68.00059
G1 X247.013 Y409.520 E68.26719
G1 X246.505 Y409.532 E68.29254
G1 X241.486 Y409.436 E68.54303
G1 X240.242 Y409.290 E68.60550
G1 X225.598 Y406.100 E69.35324
G1 X216.743 Y403.859 E69.80899
G1 X206.771 Y400.473 E70.33440
G1 X197.494 Y396.449 E70.83890
G1 X189.252 Y391.780 E71.31152
G1 X181.792 Y386.433 E71.76943
G1 X175.125 Y380.390 E72.21837
G1 X169.270 Y373.653 E72.66370
G1 X164.218 Y366.225 E73.11188
G1 X159.960 Y358.120 E73.56865
G1 X156.462 Y349.339 E74.04026
G1 X153.725 Y340.012 E74.52519
G1 X152.238 Y333.382 E74.86421
G1 X151.640 Y327.841 E75.14226
G1 X151.882 Y322.910 E75.38855
G1 X180.299 Y89.911 E87.09940
G1 X182.050 Y79.432 E87.62948
G1 X183.743 Y74.024 E87.91222
G1 F1200.000 E86.91222
G92 E0
G1 X224.607 Y201.620 F6600.000
G1 E1.00000 F1200.000
M204 S700
G1 X233.228 Y201.774 E1.43018 F2550.000
G1 X249.695 Y202.025 E2.25185
G1 X249.590 Y215.244 E2.91137
G1 X247.873 Y215.479 E2.99784
G1 X239.223 Y216.023 E3.43022
G1 X228.727 Y216.570 E3.95462
G1 X224.036 Y217.304 E4.19151
G1 X222.823 Y217.985 E4.26092
G1 X222.463 Y218.948 E4.31223
G1 X221.737 Y222.412 E4.48879
G1 X219.937 Y227.973 E4.78041
G1 X215.164 Y239.651 E5.40983
G1 X207.173 Y253.012 E6.18658
G1 X199.275 Y265.750 E6.93432
G1 X192.420 Y279.088 E7.68254
G1 X186.715 Y292.805 E8.42370
G1 X182.249 Y306.699 E9.15183
G1 X179.732 Y316.468 E9.65516
G1 X178.344 Y323.653 E10.02026
G1 X177.939 Y329.403 E10.30782
G1 X178.359 Y334.820 E10.57891
G1 X179.616 Y341.336 E10.91001
G1 X181.519 Y348.232 E11.26689
G1 X183.828 Y354.732 E11.61105
G1 X186.301 Y360.047 E11.90351
G1 X189.323 Y364.803 E12.18465
G1 X193.103 Y369.766 E12.49594
G1 X197.138 Y374.325 E12.79967
G1 X200.927 Y377.858 E13.05813
G1 X205.607 Y380.988 E13.33906
G1 X211.505 Y384.132 E13.67248
G1 X217.302 Y386.661 E13.98803
G1 X221.662 Y387.917 E14.21443
G1 X231.441 Y389.719 E14.71049
G1 X244.599 Y391.614 E15.37378
G1 X250.830 Y392.085 E15.68553
G1 X251.273 Y402.168 E16.18904
G1 X246.598 Y402.466 E16.42273
G1 X241.710 Y402.372 E16.66666
G1 X237.677 Y401.143 E16.87703
G1 X234.596 Y399.998 E17.04099
G1 X232.541 Y399.650 E17.14500
G1 X227.265 Y399.232 E17.40906
G1 X218.977 Y397.154 E17.83534
G1 X209.536 Y393.970 E18.33242
G1 X200.924 Y390.270 E18.80007
G1 X193.315 Y385.998 E19.23543
G1 X186.484 Y381.149 E19.65337
G1 X180.411 Y375.700 E20.06048
G1 X175.073 Y369.619 E20.46418
G1 X170.444 Y362.882 E20.87198
G1 X166.505 Y355.453 E21.29149
G1 X163.232 Y347.311 E21.72933
G1 X160.609 Y338.413 E22.19215
G1 X159.247 Y332.475 E22.49607
G1 X158.702 Y328.106 E22.71574
G1 X158.899 Y323.751 E22.93327
G1 X159.789 Y317.842 E23.23138
G1 X161.118 Y311.350 E23.56198
G1 X162.803 Y305.585 E23.86163
G1 X164.891 Y300.384 E24.14127
G1 X167.456 Y295.552 E24.41423
G1 X174.650 Y281.731 E25.19161
G1 X179.032 Y272.558 E25.69877
G1 X177.855 Y254.548 E26.59922
G1 X181.075 Y253.374 E26.77020
G1 X188.450 Y251.098 E27.15526
G1 X192.146 Y249.527 E27.35565
G1 X195.783 Y246.778 E27.58312
G1 X199.239 Y243.016 E27.83798
G1 X202.452 Y238.376 E28.11959
G1 X205.355 Y232.983 E28.42516
G1 X207.874 Y226.957 E28.75100
G1 X209.932 Y220.429 E29.09250
G1 X211.456 Y213.518 E29.44556
G1 X212.506 Y204.722 E29.88752
G1 X212.427 Y196.295 E30.30799
G1 X211.171 Y187.696 E30.74156
G1 X208.693 Y178.347 E31.22410
G1 X206.633 Y173.850 E31.47089
G1 X203.581 Y169.924 E31.71900
G1 X199.831 Y166.884 E31.95981
G1 X195.738 Y165.066 E32.18330
G1 X192.774 Y163.885 E32.34247
G1 X191.964 Y163.120 E32.39808
G1 X191.399 Y162.026 E32.45950
G1 X190.880 Y158.037 E32.66022
G1 X191.113 Y151.047 E33.00912
G1 X191.155 Y141.080 E33.50640
G1 X189.336 Y128.934 E34.11915
G1 X187.549 Y115.818 E34.77955
G1 X186.862 Y102.811 E35.42942
G1 X187.283 Y90.996 E36.01927
G1 X188.817 Y81.470 E36.50066
G1 X190.317 Y76.605 E36.75467
G1 X192.206 Y71.982 E37.00382
G1 X194.488 Y67.616 E37.24960
G1 X197.161 Y63.503 E37.49435
G1 X200.226 Y59.638 E37.74045
G1 X203.683 Y56.030 E37.98975
G1 X211.831 Y49.509 E38.51045
G1 X218.153 Y45.788 E38.87641
G1 X224.891 Y42.906 E39.24207
G1 X232.178 Y40.815 E39.62026
G1 X240.187 Y39.465 E40.02549
G1 X250.146 Y37.739 E40.52977
G1 X250.300 Y43.006 E40.79268
G1 X250.539 Y42.999 E40.80461
G1 X250.638 Y44.066 E40.85809
G1 X251.008 Y45.739 E40.94355
G1 X251.177 Y46.213 E40.96869
G1 X251.020 Y50.691 E41.19222
G1 X250.726 Y52.128 E41.26543
G1 X249.292 Y51.047 E41.35504
G1 X247.653 Y49.756 E41.45911
G1 X245.458 Y49.311 E41.57089
G1 X242.550 Y49.762 E41.71770
G1 X238.510 Y51.028 E41.92891
G1 X231.280 Y54.126 E42.32135
G1 X224.616 Y58.103 E42.70852
G1 X218.592 Y62.877 E43.09202
G1 X213.272 Y68.377 E43.47379
G1 X208.719 Y74.522 E43.85538
G1 X205.003 Y81.235 E44.23820
G1 X202.185 Y88.443 E44.62431
G1 X200.333 Y96.058 E45.01532
G1 X199.076 Y105.923 E45.51146
G1 X199.518 Y113.794 E45.90479
G1 X199.803 Y117.443 E46.08739
G1 X199.509 Y118.937 E46.16335
G1 X198.996 Y119.961 E46.22048
G1 X198.845 Y122.116 E46.32827
G1 X199.042 Y124.309 E46.43812
G1 X200.188 Y124.411 E46.49554
G1 X200.288 Y124.048 E46.51434
G1 X200.543 Y124.042 E46.52709
G1 X201.802 Y127.945 E46.73168
G1 X206.991 Y144.735 E47.60847
G1 X213.706 Y160.717 E48.47338
G1 X218.154 Y171.058 E49.03498
G1 X221.164 Y179.466 E49.48056
G1 X223.011 Y186.841 E49.85986
G1 X223.982 Y194.097 E50.22513
G1 X224.602 Y201.551 E50.59828
M204 S700
G1 X225.002 Y201.198 F6600.000
M204 S700
G1 X233.235 Y201.345 E51.00910 F2550.000
G1 X250.129 Y201.602 E51.85204
G1 X250.016 Y215.618 E52.55134
G1 X247.915 Y215.905 E52.65711
G1 X239.248 Y216.451 E53.09039
G1 X228.771 Y216.997 E53.61380
G1 X224.178 Y217.716 E53.84574
G1 X223.169 Y218.282 E53.90347
G1 X222.876 Y219.068 E53.94532
G1 X222.152 Y222.522 E54.12142
G1 X220.340 Y228.120 E54.41498
G1 X215.549 Y239.843 E55.04681
G1 X207.539 Y253.235 E55.82535
G1 X199.648 Y265.961 E56.57241
G1 X192.809 Y279.269 E57.31890
G1 X187.118 Y292.953 E58.05832
G1 X182.661 Y306.818 E58.78493
G1 X180.150 Y316.562 E59.28697
G1 X178.769 Y323.709 E59.65013
G1 X178.368 Y329.401 E59.93482
G1 X178.785 Y334.763 E60.20311
G1 X180.033 Y341.238 E60.53215
G1 X181.928 Y348.103 E60.88742
G1 X184.225 Y354.569 E61.22981
G1 X186.677 Y359.840 E61.51986
G1 X189.675 Y364.558 E61.79870
G1 X193.435 Y369.494 E62.10829
G1 X197.445 Y374.025 E62.41020
G1 X201.194 Y377.521 E62.66592
G1 X205.828 Y380.620 E62.94405
G1 X211.691 Y383.746 E63.27557
G1 X217.448 Y386.256 E63.58888
G1 X221.761 Y387.499 E63.81283
G1 X231.510 Y389.296 E64.30742
G1 X244.646 Y391.187 E64.96956
G1 X251.241 Y391.687 E65.29956
G1 X251.719 Y402.569 E65.84301
G1 X246.605 Y402.894 E66.09866
G1 X241.642 Y402.799 E66.34633
G1 X237.539 Y401.549 E66.56032
G1 X234.485 Y400.414 E66.72291
G1 X232.488 Y400.076 E66.82395
G1 X227.195 Y399.657 E67.08884
G1 X218.856 Y397.566 E67.51776
G1 X209.383 Y394.370 E68.01655
G1 X200.734 Y390.655 E68.48620
G1 X193.085 Y386.361 E68.92382
G1 X186.216 Y381.484 E69.34412
G1 X180.106 Y376.002 E69.75372
G1 X174.734 Y369.882 E70.15996
G1 X170.077 Y363.104 E70.57025
G1 X166.116 Y355.634 E70.99212
G1 X162.827 Y347.451 E71.43211
G1 X160.194 Y338.521 E71.89660
G1 X158.824 Y332.550 E72.20226
G1 X158.273 Y328.123 E72.42483
G1 X158.472 Y323.709 E72.64529
G1 X159.367 Y317.767 E72.94507
G1 X160.702 Y311.247 E73.27712
G1 X162.398 Y305.445 E73.57870
G1 X164.502 Y300.203 E73.86052
G1 X167.077 Y295.352 E74.13452
G1 X174.267 Y281.539 E74.91145
G1 X178.597 Y272.474 E75.41266
G1 X177.407 Y254.256 E76.32355
G1 X180.938 Y252.968 E76.51109
G1 X188.302 Y250.695 E76.89560
G1 X191.930 Y249.154 E77.09225
G1 X195.494 Y246.460 E77.31515
G1 X198.903 Y242.748 E77.56660
G1 X202.086 Y238.151 E77.84555
G1 X204.968 Y232.798 E78.14887
G1 X207.471 Y226.810 E78.47269
G1 X209.517 Y220.318 E78.81229
G1 X211.033 Y213.447 E79.16335
G1 X212.077 Y204.699 E79.60288
G1 X211.999 Y196.328 E80.02053
G1 X210.750 Y187.782 E80.45143
G1 X208.288 Y178.492 E80.93091
G1 X206.264 Y174.074 E81.17340
G1 X203.273 Y170.226 E81.41656
G1 X199.606 Y167.253 E81.65209
G1 X195.572 Y165.461 E81.87233
G1 X192.539 Y164.253 E82.03518
G1 X191.616 Y163.381 E82.09852
G1 X190.983 Y162.156 E82.16733
G1 X190.450 Y158.057 E82.37353
G1 X190.684 Y151.039 E82.72386
G1 X190.726 Y141.111 E83.21920
G1 X188.912 Y128.995 E83.83045
G1 X187.122 Y115.859 E84.49188
G1 X186.433 Y102.815 E85.14358
G1 X186.855 Y90.954 E85.73570
G1 X188.399 Y81.372 E86.21991
G1 X189.913 Y76.460 E86.47636
G1 X191.817 Y71.801 E86.72747
G1 X194.117 Y67.400 E86.97526
G1 X196.813 Y63.252 E87.22204
G1 X199.902 Y59.356 E87.47014
G1 X203.393 Y55.713 E87.72186
G1 X211.587 Y49.155 E88.24550
G1 X217.959 Y45.404 E88.61437
G1 X224.748 Y42.502 E88.98272
G1 X232.083 Y40.397 E89.36345
G1 X240.114 Y39.042 E89.76983
G1 X250.008 Y37.328 E90.27078
G1 X250.558 Y37.171 E90.29932
G1 X250.716 Y42.565 E90.56853
G1 X250.929 Y42.558 E90.57914
G1 X251.062 Y44.000 E90.65138
G1 X251.420 Y45.620 E90.73415
G1 X251.608 Y46.146 E90.76204
G1 X251.447 Y50.742 E90.99145
G1 X251.010 Y52.879 E91.10032
G1 X249.030 Y51.386 E91.22404
G1 X247.467 Y50.154 E91.32334
G1 X245.448 Y49.746 E91.42611
G1 X242.647 Y50.180 E91.56750
G1 X238.659 Y51.430 E91.77602
G1 X231.475 Y54.509 E92.16595
G1 X224.860 Y58.456 E92.55028
G1 X218.881 Y63.196 E92.93095
G1 X213.599 Y68.654 E93.30990
G1 X209.080 Y74.755 E93.68868
G1 X205.392 Y81.418 E94.06866
G1 X202.594 Y88.572 E94.45191
G1 X200.755 Y96.136 E94.84029
G1 X199.506 Y105.938 E95.33327
G1 X199.945 Y113.766 E95.72441
G1 X200.234 Y117.468 E95.90970
G1 X199.918 Y119.077 E95.99150
G1 X199.417 Y120.076 E96.04726
G1 X199.275 Y122.112 E96.14907
G1 X199.437 Y123.914 E96.23934
G1 X199.869 Y123.952 E96.26102
G1 X200.200 Y122.747 E96.32340
G1 X200.341 Y122.449 E96.33983
G1 X200.570 Y122.731 E96.35796
G1 X202.211 Y127.816 E96.62454
G1 X207.394 Y144.588 E97.50041
G1 X214.101 Y160.550 E98.36418
G1 X218.553 Y170.900 E98.92636
G1 X221.575 Y179.342 E99.37366
G1 X223.432 Y186.760 E99.75521
G1 X224.408 Y194.051 E100.12222
G1 X224.997 Y201.129 E100.47658
M204 S700
G1 X225.010 Y201.658 F6600.000
G1 X224.926 Y201.916 F6600.000
M204 S700
G1 X238.766 Y215.756 E101.45307 F2550.000
G1 X239.341 Y215.724 E101.48182
G1 X225.544 Y201.927 E102.45531
G1 X226.162 Y201.938 E102.48614
G1 X239.912 Y215.688 E103.45632
G1 X240.483 Y215.652 E103.48486
G1 X226.780 Y201.949 E104.45172
G1 X227.398 Y201.960 E104.48255
G1 X241.054 Y215.616 E105.44609
G1 X241.625 Y215.581 E105.47463
G1 X228.016 Y201.971 E106.43486
G1 X228.633 Y201.982 E106.46569
G1 X242.196 Y215.545 E107.42260
G1 X242.767 Y215.509 E107.45114
G1 X229.251 Y201.994 E108.40474
G1 X229.869 Y202.005 E108.43557
G1 X243.337 Y215.473 E109.38585
G1 X243.908 Y215.437 E109.41439
G1 X230.487 Y202.016 E110.36136
G1 X231.105 Y202.027 E110.39219
G1 X244.479 Y215.401 E111.33584
G1 X245.050 Y215.365 E111.36438
G1 X231.723 Y202.038 E112.30471
G1 X232.341 Y202.049 E112.33555
G1 X245.621 Y215.329 E113.27257
G1 X246.192 Y215.293 E113.30111
G1 X232.959 Y202.060 E114.23481
G1 X233.576 Y202.070 E114.26559
G1 X246.763 Y215.257 E115.19605
G1 X247.334 Y215.221 E115.22459
G1 X234.192 Y202.079 E116.15184
G1 X234.808 Y202.089 E116.18259
G1 X247.901 Y215.181 E117.10637
G1 X248.435 Y215.108 E117.13325
G1 X235.425 Y202.098 E118.05121
G1 X236.041 Y202.108 E118.08196
G1 X248.969 Y215.035 E118.99411
G1 X249.303 Y214.763 E119.01563
G1 X236.657 Y202.117 E119.90789
G1 X237.273 Y202.126 E119.93864
G1 X249.308 Y214.161 E120.78776
G1 X249.313 Y213.559 E120.81780
G1 X237.890 Y202.136 E121.62378
G1 X238.506 Y202.145 E121.65453
G1 X249.317 Y212.957 E122.41737
G1 X249.322 Y212.355 E122.44740
G1 X239.122 Y202.155 E123.16710
G1 X239.738 Y202.164 E123.19785
G1 X249.327 Y211.753 E123.87440
G1 X249.332 Y211.151 E123.90444
G1 X240.355 Y202.173 E124.53785
G1 X240.971 Y202.183 E124.56860
G1 X249.337 Y210.549 E125.15887
G1 X249.341 Y209.947 E125.18891
G1 X241.587 Y202.192 E125.73604
G1 X242.203 Y202.202 E125.76679
G1 X249.346 Y209.345 E126.27077
G1 X249.351 Y208.742 E126.30081
G1 X242.820 Y202.211 E126.76166
G1 X243.436 Y202.220 E126.79241
G1 X249.356 Y208.140 E127.21011
G1 X249.361 Y207.538 E127.24015
G1 X244.052 Y202.230 E127.61471
G1 X244.668 Y202.239 E127.64546
G1 X249.365 Y206.936 E127.97688
G1 X249.370 Y206.334 E128.00692
G1 X245.285 Y202.249 E128.29520
G1 X245.901 Y202.258 E128.32595
G1 X249.375 Y205.732 E128.57109
G1 X249.380 Y205.130 E128.60112
G1 X246.517 Y202.267 E128.80312
G1 X247.133 Y202.277 E128.83387
G1 X249.385 Y204.528 E128.99273
G1 X249.389 Y203.926 E129.02276
G1 X247.749 Y202.286 E129.13848
G1 X248.366 Y202.296 E129.16923
G1 X249.394 Y203.324 E129.24180
G1 X249.399 Y202.722 E129.27184
G1 X248.982 Y202.305 E129.30127
M204 S700
G1 F1200.000 E128.30127
G92 E0
G1 X238.189 Y215.786 F6600.000
G1 E1.00000 F1200.000
M204 S700
G1 X211.698 Y189.295 E2.86913 F2550.000
G1 X211.802 Y190.006 E2.90496
G1 X237.612 Y215.816 E4.72607
G1 X237.035 Y215.846 E4.75489
G1 X211.906 Y190.716 E6.52797
G1 X212.010 Y191.427 E6.56380
G1 X236.459 Y215.876 E8.28887
G1 X235.882 Y215.906 E8.31768
G1 X212.113 Y192.138 E9.99472
G1 X212.217 Y192.848 E10.03055
G1 X235.305 Y215.936 E11.65957
G1 X234.728 Y215.966 E11.68839
G1 X212.321 Y193.559 E13.26938
G1 X212.425 Y194.270 E13.30521
G1 X234.152 Y215.996 E14.83818
G1 X233.575 Y216.027 E14.86700
G1 X212.529 Y194.981 E16.35195
G1 X212.633 Y195.691 E16.38778
G1 X232.998 Y216.057 E17.82471
G1 X232.421 Y216.087 E17.85352
G1 X212.719 Y196.384 E19.24369
G1 X212.724 Y196.997 E19.27425
G1 X231.845 Y216.117 E20.62332
G1 X231.268 Y216.147 E20.65213
G1 X212.730 Y197.609 E21.96010
G1 X212.736 Y198.222 E21.99066
G1 X230.691 Y216.177 E23.25753
G1 X230.114 Y216.207 E23.28634
